icons/BirdHouse.svg

<svg width="24" height="24" viewBox="0 0 24 24" fill="none" xmlns="http://www.w3.org/2000/svg">
<path fill-rule="evenodd" clip-rule="evenodd" d="M12.75,4.5c-0.4444,-0.33333 -1.0556,-0.33333 -1.5,0l-5.82733,4.3705c-0.37348,0.28011 -0.55974,0.745 -0.48299,1.2055l1.52158,9.1295c0.10046,0.6027 0.62195,1.0445 1.233,1.0445h8.61144c0.6111,0 1.1326,-0.4418 1.233,-1.0445l1.5216,-9.1295c0.0768,-0.4605 -0.1095,-0.92539 -0.483,-1.2055zM10.35,3.3c0.9778,-0.73333 2.3222,-0.73333 3.3,0l5.8273,4.3705c0.8217,0.61624 1.2315,1.639 1.0626,2.6521l-1.5216,9.1295c-0.221,1.326 -1.3682,2.2979 -2.7126,2.2979h-8.61144c-1.34431,0 -2.49158,-0.9719 -2.71259,-2.2979l-1.52158,-9.1295c-0.16885,-1.0131 0.24093,-2.03586 1.06258,-2.6521zM10.75,17.25c0,-0.6904 0.5596,-1.25 1.25,-1.25c0.6904,0 1.25,0.5596 1.25,1.25c0,0.6904 -0.5596,1.25 -1.25,1.25c-0.6904,0 -1.25,-0.5596 -1.25,-1.25zM15.125,11.5c0,1.7259 -1.3991,3.125 -3.125,3.125c-1.7259,0 -3.125,-1.3991 -3.125,-3.125c0,-1.72589 1.3991,-3.125 3.125,-3.125c1.7259,0 3.125,1.39911 3.125,3.125zM12,13.375c1.0355,0 1.875,-0.8395 1.875,-1.875c0,-1.0355 -0.8395,-1.875 -1.875,-1.875c-1.0355,0 -1.875,0.8395 -1.875,1.875c0,1.0355 0.8395,1.875 1.875,1.875z" fill="#002B51"/>
</svg>

<svg width="24" height="24" viewBox="0 0 24 24" fill="none" xmlns="http://www.w3.org/2000/svg">
<path fill-rule="evenodd" clip-rule="evenodd" d="M12.75 4.5C12.3056 4.16667 11.6944 4.16667 11.25 4.5L5.42267 8.8705C5.04919 9.15061 4.86293 9.6155 4.93968 10.076L6.46126 19.2055C6.56172 19.8082 7.08321 20.25 7.69426 20.25H16.3057C16.9168 20.25 17.4383 19.8082 17.5387 19.2055L19.0603 10.076C19.1371 9.6155 18.9508 9.15061 18.5773 8.8705L12.75 4.5ZM10.35 3.3C11.3278 2.56667 12.6722 2.56667 13.65 3.3L19.4773 7.6705C20.299 8.28674 20.7088 9.3095 20.5399 10.3226L19.0183 19.4521C18.7973 20.7781 17.6501 21.75 16.3057 21.75H7.69426C6.34995 21.75 5.20268 20.7781 4.98167 19.4521L3.46009 10.3226C3.29124 9.3095 3.70102 8.28674 4.52267 7.6705L10.35 3.3ZM10.75 17.25C10.75 16.5596 11.3096 16 12 16C12.6904 16 13.25 16.5596 13.25 17.25C13.25 17.9404 12.6904 18.5 12 18.5C11.3096 18.5 10.75 17.9404 10.75 17.25ZM12 8.375C10.2741 8.375 8.875 9.77411 8.875 11.5C8.875 13.2259 10.2741 14.625 12 14.625C13.7259 14.625 15.125 13.2259 15.125 11.5C15.125 9.77411 13.7259 8.375 12 8.375ZM10.125 11.5C10.125 10.4645 10.9645 9.625 12 9.625C13.0355 9.625 13.875 10.4645 13.875 11.5C13.875 12.5355 13.0355 13.375 12 13.375C10.9645 13.375 10.125 12.5355 10.125 11.5Z" fill="#002B51"/>
</svg>
